.local/share/icons/Gruvbox-Plus-Dark/actions/16/vm-snapshot-autoprotect.svg

<svg xmlns="http://www.w3.org/2000/svg" width="16" height="16" version="1.1">
 <defs>
  <style id="current-color-scheme" type="text/css">
   .ColorScheme-Text { color:#555555; } .ColorScheme-Highlight { color:#4285f4; } .ColorScheme-NeutralText { color:#ff9800; } .ColorScheme-PositiveText { color:#4caf50; } .ColorScheme-NegativeText { color:#f44336; }
  </style>
 </defs>
 <path style="fill:currentColor" class="ColorScheme-Text" d="M 4.5 0 C 3.132132 0 2 1.1321324 2 2.5 L 2 5.0507812 C 0.866938 5.2861798 0 6.3031158 0 7.5 L 0 13.5 C 0 14.867868 1.132132 16 2.5 16 L 8.5 16 C 8.8380221 16 9.161266 15.929448 9.4570312 15.804688 C 8.9198201 15.30869 8.5115598 14.689262 8.2675781 14 L 2.5 14 C 2.205537 14 2 13.794463 2 13.5 L 2 7.5 C 2 7.2055368 2.205537 7 2.5 7 L 5 7 L 7 7 L 8.5 7 C 8.7944632 7 9 7.2055368 9 7.5 L 9 9.6855469 C 9.5225815 9.0368957 10.214946 8.5460202 11 8.2675781 L 11 7.5 C 11 6.1321324 9.8678676 5 8.5 5 L 13.5 5 C 13.794463 5 14 5.2055368 14 5.5 L 14 8.2578125 C 14.784592 8.535172 15.476907 9.0246606 16 9.671875 L 16 5.5 C 16 4.1321324 14.867868 3 13.5 3 L 13 3 L 13 2.5 C 13 1.1321324 11.867868 0 10.5 0 L 4.5 0 z M 4.5 2 L 10.5 2 C 10.794463 2 11 2.2055368 11 2.5 L 11 3 L 7.5 3 C 6.3031158 3 5.2861799 3.8669384 5.0507812 5 L 4 5 L 4 2.5 C 4 2.2055368 4.2055368 2 4.5 2 z M 12.5 9 C 10.567003 9 9 10.567003 9 12.5 C 9 14.432997 10.567003 16 12.5 16 C 14.432997 16 16 14.432997 16 12.5 C 16 10.567003 14.432997 9 12.5 9 z M 12.5 10 C 13.880712 10 15 11.119288 15 12.5 C 15 13.880712 13.880712 15 12.5 15 C 12.331853 14.997984 12.164338 14.979009 12 14.943359 L 12 13.914062 C 12.160578 13.970892 12.329663 13.999951 12.5 14 C 13.328427 14 14 13.328427 14 12.5 C 14 11.671573 13.328427 11 12.5 11 C 11.846967 11 11.291912 11.41751 11.085938 12 L 12 12 L 10 14 L 10 12.5 L 10 12 L 10.050781 12 C 10.282446 10.858918 11.290548 10 12.5 10 z"/>
</svg>

<svg width="16" height="16" version="1.1" xmlns="http://www.w3.org/2000/svg">
  <defs>
    <style id="current-color-scheme" type="text/css">.ColorScheme-Text { color:#ebdbb2; } .ColorScheme-Highlight { color:#458588; }</style>
  </defs>
  <path class="ColorScheme-Text" d="m4.5 0c-1.368 0-2.5 1.132-2.5 2.5v2.551c-1.133 0.2354-2 1.252-2 2.449v6c0 1.368 1.132 2.5 2.5 2.5h6c0.338 0 0.6613-0.07055 0.957-0.1953-0.5372-0.496-0.9455-1.115-1.189-1.805h-5.768c-0.2945 0-0.5-0.2055-0.5-0.5v-6c0-0.2945 0.2055-0.5 0.5-0.5h6c0.2945 0 0.5 0.2055 0.5 0.5v2.186c0.5226-0.6487 1.215-1.14 2-1.418v-0.7676c0-1.368-1.132-2.5-2.5-2.5h5c0.2945 0 0.5 0.2055 0.5 0.5v2.758c0.7846 0.2774 1.477 0.7668 2 1.414v-4.172c0-1.368-1.132-2.5-2.5-2.5h-0.5v-0.5c0-1.368-1.132-2.5-2.5-2.5h-6zm0 2h6c0.2945 0 0.5 0.2055 0.5 0.5v0.5h-3.5c-1.197 0-2.214 0.8669-2.449 2h-1.051v-2.5c0-0.2945 0.2055-0.5 0.5-0.5zm8 7c-1.933 0-3.5 1.567-3.5 3.5s1.567 3.5 3.5 3.5 3.5-1.567 3.5-3.5-1.567-3.5-3.5-3.5zm0 1c1.381 0 2.5 1.119 2.5 2.5s-1.119 2.5-2.5 2.5c-0.1681-0.002016-0.3357-0.02099-0.5-0.05664v-1.029c0.1606 0.05683 0.3297 0.08589 0.5 0.08594 0.8284 0 1.5-0.6716 1.5-1.5s-0.6716-1.5-1.5-1.5c-0.653 0-1.208 0.4175-1.414 1h0.9141l-2 2v-2h0.05078c0.2317-1.141 1.24-2 2.449-2z" fill="currentColor"/>
</svg>
